stories/assets/img/lion_logo.svg

<svg width="100" height="117" xmlns="http://www.w3.org/2000/svg">
  <defs>
    <linearGradient x1="0%" y1="50.7055163%" y2="50.7055163%" id="a">
      <stop stop-color="#F50" offset="0%"/>
      <stop stop-color="#FF2000" offset="100%"/>
    </linearGradient>
    <linearGradient x1="2.1484375%" y1="50.7055163%" y2="50.7055163%" id="b">
      <stop stop-color="#FA3F2E" offset="0%"/>
      <stop stop-color="#FF2000" offset="46.1321351%"/>
      <stop stop-color="#FF2000" offset="100%"/>
    </linearGradient>
    <linearGradient x1="50%" y1="100%" x2="96.7673826%" y2="100%" id="c">
      <stop stop-color="#FFF" offset="0%"/>
      <stop stop-color="#F4F4F4" offset="100%"/>
    </linearGradient>
  </defs>
  <g fill="none" fill-rule="evenodd">
    <path d="M99.9135084 37.3373994l-3.6157454-9.8480885 2.5119529-5.6572561c.3227035-.7283073.1674636-1.5829036-.3911557-2.1481388l-6.8342232-6.9360853c-2.988674-3.03093558-7.4478488-4.07312622-11.4645288-2.6753647l-1.910551.6645498L68.2274934.01384123H31.5242589L21.6701473 10.8755659l-1.8579895-.6559671c-4.0533508-1.43086641-8.5663096-.3776408-11.57454126 2.701113l-6.95523707 7.0660525c-.44616195.4524334-.5683981 1.1316965-.30925746 1.7116449l2.62441019 5.8718247L.00012224 37.413418l2.3285987 8.8745599L12.9339295 86.738462c1.2211392 4.6641097 4.0350154 8.7482709 7.949017 11.5450201 0 0 12.8763563 9.1099719 25.5828043 17.3837399 1.1172384.728307 2.285816 1.260438 3.539959 1.24082 1.2541429.017165 2.4227205-.512513 3.5375142-1.244498 14.2710708-9.383394 25.5620242-17.4168451 25.5620242-17.4168451 3.9103345-2.8016536 6.7193213-6.8907193 7.935571-11.556055l10.5550917-40.4664236 2.3175975-8.8868209z" fill="url(#a)"/>
    <path d="M31.5654114.0326274l-9.7302605 10.9873927-.8035247-.5544352c-6.4630642-2.00883435-9.2769959-.64684101-13.44639129 3.2299673l-.92316467.9963851 5.09256006-.9963851c1.4072677 0 5.342362.1331198 6.1669648.4164168 3.4733641 1.1951969 4.4373192 2.5934435 6.662768 4.0585628l1.0683278.3593332 10.385697 2.0833428c.6508735.1228025 1.3225455.0899741 1.959961-.0960534l4.8781655-1.6021268c4.4164234-1.7113133 9.2277726-1.7908924 14.2385218 0l4.7857831 1.6215806c.7340678.2346623 1.5146265.2832969 2.2719398.1410405l.8588593-.1629261 10.4934989-2.3441908.1700591-.4219058.7224559-.5828594c4.4637097-3.2483026 8.0169023-4.8221485 14.8676-4.1517252h.5264022l-.3148104-.423842c-5.7109277-4.54350826-9.1929061-3.17781831-12.4008521-2.1246145l-.876676.3000946L68.2814318.0326274H31.5654114z" fill="url(#b)"/>
    <path d="M53.4717845 72.8558024l1.3882408.5763631c1.4959703.62051 3.9027441 1.7290892 5.3460738 2.4636455l4.0961674 2.0847175c1.4433298.73333 1.5473866 2.1067909.2301493 3.0510453l-3.4938619 2.5041136c-1.3172373.9442544-3.3885808 2.5825971-4.6017612 3.6445767-1.2144047 1.0619796-3.1963817 2.7947477-4.4058896 3.8530484-1.2095079 1.0583007-3.1694493 1.0632059-4.3556974.0134893-1.1874723-1.0509428-3.1523105-2.7714479-4.3679394-3.8223908-1.2144047-1.0521691-3.2906449-2.6782488-4.6140033-3.6126927l-3.4816198-2.4648719c-1.3233584-.9368965-1.2290951-2.316489.2068895-3.065761l4.1182029-2.1484853c1.4359846-.7504983 3.834189-1.8737931 5.3301593-2.4943031l1.3882408-.5788157c1.4947461-.6217363 2.8352432-1.131879 2.9784744-1.131879h1.2584758c.142007 0 1.4837283.5064638 2.9796986 1.1282001zm34.9924831-33.0383573l-.2632026.9454807c-.7026898.8780339-2.1839697 2.5629761-3.2930933 3.7463599L74.7128485 55.3792479c-1.1091236 1.1821574-1.7349369 2.6648734-1.1020264 4.1585121l1.3750227 3.3992019c.6316863 1.4924124.6941204 3.9621895.0881422 5.6201531-.6157717 1.6873948-1.6759274 3.178581-3.0653924 4.3153651l-1.0638283.8694499c-1.2548032 1.0264167-3.4779473 1.2962037-4.9408642.5984365l-4.6960245-2.2343266c-1.4616928-.6953146-3.6432141-2.1533905-4.8478252-3.2398962l-4.4426155-4.0051102c-.8667323-.7823822-.9157003-2.1264118-.1089536-2.9676567l10.8194642-7.3210372c1.3417213-.9074653 2.0520044-2.586314 1.2893289-4.0174112L60.1705974 43.5356c-.7626755-1.4323235-1.0675009-3.3343217-.6782059-4.2282976.3905193-.8939759 1.9476995-2.0957542 3.4632569-2.670891l12.5592981-4.6795775c1.5143332-.5751368 1.4335361-1.1686681-.178733-1.3207299l-8.0251318-.5984365c-1.6134933-.1520618-2.7958047.0833887-4.3554333.519953l-6.0739917 1.5071281c-1.5596286.4365644-1.889418 2.1006595-1.5968346 3.6948552l2.5059338 13.6266945c.2938076 1.595422.4370388 3.2018808.3195158 3.5709984-.117523.3691176-1.5057639.9638753-3.0849796 1.3231824l-2.0774645.4721272c-1.5792157.3593072-4.1671709.3752492-5.7500592.0380155l-2.5132791-.5371214c-1.5841125-.33846-2.9760259-.9172756-3.0947732-1.285167-.117523-.3691176.024484-1.978029.3170674-3.5722247l2.4900192-13.6291471c.2925834-1.595422-.0396543-3.2570645-1.5992829-3.6924025l-6.0764402-1.4997703c-1.5596286-.4353381-2.7431642-.6658833-4.3554333-.5138215l-8.0251318.6057943c-1.6122691.1532881-1.691842.7468194-.1775087 1.3195036l12.5666432 4.6660882c1.5143333.5739105 3.0739619 1.7732362 3.4644811 2.6672121.3917434.8927496.0881423 2.7947477-.6720848 4.2270712l-3.8393338 7.0217811c-.7602272 1.4323235-.0487199 3.1111722 1.2942256 4.0174111l10.8292578 7.3100006c.8079709.8400185.7602271 2.1852744-.105281 2.9676566l-4.4389429 4.0112417c-1.2021627 1.087732-3.3824598 2.5470342-4.8441526 3.2460277l-4.6923519 2.2404582c-1.4616927.6977672-3.686061.4316591-4.9408642-.5923051l-1.0638283-.8682235c-1.3919134-1.1355578-2.4545175-2.6255177-3.1217056-4.4465797-.5582344-1.5242964-.4994729-3.9916208.129765-5.4864859l1.3725743-3.3992019c.6304622-1.494865.0022004-2.977581-1.1081474-4.1585121L14.7858951 44.5522063c-1.1091236-1.1809311-2.5928519-2.864647-3.2955417-3.7402284l-.265651-.946707-.1652668-.5273109c-.0159145-.6070206.2007685-2.542129.4468324-3.065761.2460638-.5211793 1.1886965-2.0491546 2.0958274-3.3931842l2.1839697-3.2386699c.9071309-1.3440297 2.4753289-3.4814782 3.4840683-4.7507033l3.2012784-4.0222784c1.0087394-1.2679988 1.8693508-2.3005471 1.9991158-2.2919629.006121-.0085842 1.3123405.2354504 2.9025741.5408002l4.8490493.9332176c1.5902336.3053498 3.3445097.6413572 3.8990715.7455931.5533376.1054622 2.2672152-.2182822 3.8084808-.7186144l3.4877408-1.1318789c1.5400414-.5015585 3.8782601-1.1613103 5.1942733-1.4678864l1.2193014.0183946 1.2193015-.0196209c1.3160131.3041235 3.6542318.9614227 5.1954974 1.4605286l3.4901893 1.1282c1.5412656.4991059 3.2551432.8203976 3.8084808.7149355.5545618-.1054622 2.3076137-.4451485 3.8978473-.7529509l4.8478251-.9368966c1.5902335-.3078024 2.8964531-.5530633 2.9894921-.5457055.042847-.0073578.9034584 1.0215116 1.9146461 2.2907367l3.2061753 4.0185995c1.0111877 1.2667724 2.5806099 3.4017684 3.4901892 4.745798l2.1876423 3.234991c.9083551 1.3428033 2.3272009 3.786828 2.4153432 4.3423439.0905907.5555159.1505764 1.5071281.135886 2.1141488l-.1652668.5273109z" fill="url(#c)"/>
  </g>
</svg>

<?xml version="1.0" encoding="UTF-8"?>
<svg width="100px" height="117px" viewBox="0 0 100 117" version="1.1" xmlns="http://www.w3.org/2000/svg" xmlns:xlink="http://www.w3.org/1999/xlink">
    <!-- Generator: Sketch 51 (57462) - http://www.bohemiancoding.com/sketch -->
    <title>lion_logo</title>
    <desc>Created with Sketch.</desc>
    <defs>
        <linearGradient x1="0%" y1="50.7055163%" x2="100%" y2="50.7055163%" id="linearGradient-1">
            <stop stop-color="#FF5500" offset="0%"></stop>
            <stop stop-color="#FF2000" offset="100%"></stop>
        </linearGradient>
        <linearGradient x1="2.1484375%" y1="50.7055163%" x2="100%" y2="50.7055163%" id="linearGradient-2">
            <stop stop-color="#FA3F2E" offset="0%"></stop>
            <stop stop-color="#FF2000" offset="46.1321351%"></stop>
            <stop stop-color="#FF2000" offset="100%"></stop>
        </linearGradient>
        <linearGradient x1="50%" y1="100%" x2="96.7673826%" y2="100%" id="linearGradient-3">
            <stop stop-color="#FFFFFF" offset="0%"></stop>
            <stop stop-color="#F4F4F4" offset="100%"></stop>
        </linearGradient>
    </defs>
    <g id="Symbols" stroke="none" stroke-width="1" fill="none" fill-rule="evenodd">
        <g id="lion_logo">
            <path d="M99.9135084,37.3373994 L96.297763,27.4893109 L98.8097159,21.8320548 C99.1324194,21.1037475 98.9771795,20.2491512 98.4185602,19.683916 L91.584337,12.7478307 C88.595663,9.71689512 84.1364882,8.67470448 80.1198082,10.072466 L78.2092572,10.7370158 L68.2274934,0.0138412327 L53.543224,0.0138412327 L44.2369122,0.0138412327 L31.5242589,0.0138412327 L21.6701473,10.8755659 L19.8121578,10.2195988 C15.758807,8.78873239 11.2458482,9.841958 8.23761654,12.9207118 L1.28237947,19.9867643 C0.836217518,20.4391977 0.713981365,21.1184608 0.973122008,21.6984092 L3.5975322,27.5702339 L0.000122236152,37.413418 L2.32872094,46.2879779 L12.9339295,86.738462 C14.1550687,91.4025717 16.9689449,95.4867329 20.8829465,98.2834821 C20.8829465,98.2834821 33.7593028,107.393454 46.4657508,115.667222 C47.5829892,116.395529 48.7515668,116.92766 50.0057098,116.908042 C51.2598527,116.925207 52.4284303,116.395529 53.543224,115.663544 C67.8142948,106.28015 79.1052482,98.2466989 79.1052482,98.2466989 C83.0155827,95.4450453 85.8245695,91.3559796 87.0408192,86.6906439 L97.5959109,46.2242203 L99.9135084,37.3373994 Z" id="Fill-1" fill="url(#linearGradient-1)"></path>
            <path d="M31.5654114,0.0326274051 L21.8351509,11.0200201 L21.0316262,10.4655849 C14.568562,8.45675055 11.7546303,9.81874389 7.58523491,13.6955522 L6.66207024,14.6919373 L11.7546303,13.6955522 C13.161898,13.6955522 17.0969923,13.828672 17.9215951,14.111969 C21.3949592,15.3071659 22.3589143,16.7054125 24.5843631,18.1705318 L25.6526909,18.529865 L36.0383879,20.6132078 C36.6892614,20.7360103 37.3609334,20.7031819 37.9983489,20.5171544 L42.8765144,18.9150276 C47.2929378,17.2037143 52.104287,17.1241352 57.1150362,18.9150276 L61.9008193,20.5366082 C62.6348871,20.7712705 63.4154458,20.8199051 64.1727591,20.6776487 L65.0316184,20.5147226 L75.5251173,18.1705318 L75.6951764,17.748626 L76.4176323,17.1657666 C80.881342,13.917464 84.4345346,12.3436181 91.2852323,13.0140414 L91.8116345,13.0140414 L91.4968241,12.5901994 C85.7858964,8.04669114 82.303918,9.41238109 79.095972,10.4655849 L78.219296,10.7656795 L68.2814318,0.0326274051 L31.5654114,0.0326274051 Z" id="Fill-1" fill="url(#linearGradient-2)"></path>
            <path d="M53.4717845,72.8558024 L54.8600253,73.4321655 C56.3559956,74.0526755 58.7627694,75.1612547 60.2060991,75.895811 L64.3022665,77.9805285 C65.7455963,78.7138585 65.8496531,80.0873194 64.5324158,81.0315738 L61.0385539,83.5356874 C59.7213166,84.4799418 57.6499731,86.1182845 56.4367927,87.1802641 C55.222388,88.2422437 53.240411,89.9750118 52.0309031,91.0333125 C50.8213952,92.0916132 48.8614538,92.0965184 47.6752057,91.0468018 C46.4877334,89.995859 44.5228952,88.2753539 43.3072663,87.224411 C42.0928616,86.1722419 40.0166214,84.5461622 38.693263,83.6117183 L35.2116432,81.1468464 C33.8882848,80.2099499 33.9825481,78.8303574 35.4185327,78.0810854 L39.5367356,75.9326001 C40.9727202,75.1821018 43.3709246,74.058807 44.8668949,73.438297 L46.2551357,72.8594813 C47.7498818,72.237745 49.0903789,71.7276023 49.2336101,71.7276023 L49.862848,71.7276023 L50.4920859,71.7276023 C50.6340929,71.7276023 51.9758142,72.2340661 53.4717845,72.8558024 Z M88.4642676,39.8174451 L88.201065,40.7629258 C87.4983752,41.6409597 86.0170953,43.3259019 84.9079717,44.5092857 L74.7128485,55.3792479 C73.6037249,56.5614053 72.9779116,58.0441213 73.6108221,59.53776 L74.9858448,62.9369619 C75.6175311,64.4293743 75.6799652,66.8991514 75.073987,68.557115 C74.4582153,70.2445098 73.3980596,71.735696 72.0085946,72.8724801 L70.9447663,73.74193 C69.6899631,74.7683467 67.466819,75.0381337 66.0039021,74.3403665 L61.3078776,72.1060399 C59.8461848,71.4107253 57.6646635,69.9526494 56.4600524,68.8661437 L52.0174369,64.8610335 C51.1507046,64.0786513 51.1017366,62.7346217 51.9084833,61.8933768 L62.7279475,54.5723396 C64.0696688,53.6648743 64.7799519,51.9860256 64.0172764,50.5549284 L60.1705974,43.5356 C59.4079219,42.1032765 59.1030965,40.2012783 59.4923915,39.3073024 C59.8829108,38.4133265 61.440091,37.2115482 62.9556484,36.6364114 L75.5149465,31.9568339 C77.0292797,31.3816971 76.9484826,30.7881658 75.3362135,30.636104 L67.3110817,30.0376675 C65.6975884,29.8856057 64.515277,30.1210562 62.9556484,30.5576205 L56.8816567,32.0647486 C55.3220281,32.501313 54.9922387,34.1654081 55.2848221,35.7596038 L57.7907559,49.3862983 C58.0845635,50.9817203 58.2277947,52.5881791 58.1102717,52.9572967 C57.9927487,53.3264143 56.6045078,53.921172 55.0252921,54.2804791 L52.9478276,54.7526063 C51.3686119,55.1119135 48.7806567,55.1278555 47.1977684,54.7906218 L44.6844893,54.2535004 C43.1003768,53.9150404 41.7084634,53.3362248 41.5897161,52.9683334 C41.4721931,52.5992158 41.6142001,50.9903044 41.9067835,49.3961087 L44.3968027,35.7669616 C44.6893861,34.1715396 44.3571484,32.5098971 42.7975198,32.0745591 L36.7210796,30.5747888 C35.161451,30.1394507 33.9779154,29.9089055 32.3656463,30.0609673 L24.3405145,30.6667616 C22.7282454,30.8200497 22.6486725,31.413581 24.1630058,31.9862652 L36.729649,36.6523534 C38.2439823,37.2262639 39.8036109,38.4255896 40.1941301,39.3195655 C40.5858735,40.2123151 40.2822724,42.1143132 39.5220453,43.5466367 L35.6827115,50.5684178 C34.9224843,52.0007413 35.6339916,53.67959 36.9769371,54.5858289 L47.8061949,61.8958295 C48.6141658,62.735848 48.566422,64.0811039 47.7009139,64.8634861 L43.261971,68.8747278 C42.0598083,69.9624598 39.8795112,71.421762 38.4178184,72.1207555 L33.7254665,74.3612137 C32.2637738,75.0589809 30.0394055,74.7928728 28.7846023,73.7689086 L27.720774,72.9006851 C26.3288606,71.7651273 25.2662565,70.2751674 24.5990684,68.4541054 C24.040834,66.929809 24.0995955,64.4624846 24.7288334,62.9676195 L26.1014077,59.5684176 C26.7318699,58.0735526 26.1036081,56.5908366 24.9932603,55.4099055 L14.7858951,44.5522063 C13.6767715,43.3712752 12.1930432,41.6875593 11.4903534,40.8119779 L11.2247024,39.8652709 L11.0594356,39.33796 C11.0435211,38.7309394 11.2602041,36.795831 11.506268,36.272199 C11.7523318,35.7510197 12.6949645,34.2230444 13.6020954,32.8790148 L15.7860651,29.6403449 C16.693196,28.2963152 18.261394,26.1588667 19.2701334,24.8896416 L22.4714118,20.8673632 C23.4801512,19.5993644 24.3407626,18.5668161 24.4705276,18.5754003 C24.4766486,18.5668161 25.7828681,18.8108507 27.3731017,19.1162005 L32.222151,20.0494181 C33.8123846,20.3547679 35.5666607,20.6907753 36.1212225,20.7950112 C36.6745601,20.9004734 38.3884377,20.576729 39.9297033,20.0763968 L43.4174441,18.9445179 C44.9574855,18.4429594 47.2957042,17.7832076 48.6117174,17.4766315 L49.8310188,17.4950261 L51.0503203,17.4754052 C52.3663334,17.7795287 54.7045521,18.4368279 56.2458177,18.9359338 L59.736007,20.0641338 C61.2772726,20.5632397 62.9911502,20.8845314 63.5444878,20.7790693 C64.0990496,20.6736071 65.8521015,20.3339208 67.4423351,20.0261184 L72.2901602,19.0892218 C73.8803937,18.7814194 75.1866133,18.5361585 75.2796523,18.5435163 C75.3224993,18.5361585 76.1831107,19.5650279 77.1942984,20.834253 L80.4004737,24.8528525 C81.4116614,26.1196249 82.9810836,28.2546209 83.8906629,29.5986505 L86.0783052,32.8336415 C86.9866603,34.1764448 88.4055061,36.6204695 88.4936484,37.1759854 C88.5842391,37.7315013 88.6442248,38.6831135 88.6295344,39.2901342 L88.4642676,39.8174451 Z" id="Combined-Shape" fill="url(#linearGradient-3)"></path>
        </g>
    </g>
</svg>
